fs/animal_rabbit_28_filled.svg

<svg viewBox="0 0 28 28" fill="none" xmlns="http://www.w3.org/2000/svg" height="1em" width="1em">
  <path d="M18.1842 5.55016L24.7394 12.1054C26.4205 13.7865 26.4205 16.5122 24.7394 18.1934C23.6441 19.2887 22.1054 19.6704 20.7011 19.3385L20.7011 19.5853C20.7011 20.9192 19.6197 22.0006 18.2858 22.0006H15.5008V21.1748C15.5008 19.43 14.087 18.0006 12.3352 18.0006H10.7458C10.3316 18.0006 9.99579 18.3364 9.99579 18.7506C9.99579 19.1648 10.3316 19.5006 10.7458 19.5006H12.3352C13.2516 19.5006 14.0008 20.2514 14.0008 21.1748V22.0006H7.39902C6.06506 22.0006 5 20.9192 5 19.5853V16.4352C5 16.2016 5.01463 15.9715 5.04303 15.7458C4.98743 15.749 4.9314 15.7506 4.875 15.7506C3.28718 15.7506 2 14.4634 2 12.8756C2 11.2878 3.28718 10.0006 4.875 10.0006C6.09049 10.0006 7.12981 10.7549 7.55039 11.8209C8.3812 11.301 9.36366 11.0006 10.4183 11.0006H15.2666C15.9956 11.0006 16.691 11.1441 17.3261 11.4044C17.524 11.0715 17.7649 10.7893 18.0474 10.4988L15.641 8.09338C14.9387 7.39109 14.9387 6.25245 15.641 5.55016C16.3433 4.84786 17.4819 4.84786 18.1842 5.55016Z" fill="#212121"/>
</svg>

<svg viewBox="0 0 28 28" fill="none" xmlns="http://www.w3.org/2000/svg" height="1em" width="1em">
  <path d="m18.184 5.55 6.555 6.555a4.305 4.305 0 0 1-4.038 7.233v.247a2.415 2.415 0 0 1-2.415 2.416H15.5v-.826A3.173 3.173 0 0 0 12.335 18h-1.59a.75.75 0 0 0 0 1.5h1.59c.917 0 1.666.75 1.666 1.674V22H7.399A2.401 2.401 0 0 1 5 19.585v-3.15c0-.233.015-.463.043-.69A2.875 2.875 0 1 1 7.55 11.82a5.397 5.397 0 0 1 2.868-.82h4.849a5.43 5.43 0 0 1 2.06.404c.197-.332.438-.615.72-.905l-2.406-2.406a1.798 1.798 0 1 1 2.543-2.543Z" fill="#212121"/>
</svg>
